shader_type sky;

uniform samplerCube source_panorama : filter_linear, source_color, hint_default_black;
uniform float exposure : hint_range(0, 128) = 1.0;

void sky() {
    // If importing a cubemap from another engine, you may need to flip one of the `EYEDIR` components below
    // by replacing it with `-EYEDIR`.
    vec3 eyedir = vec3(EYEDIR.x, EYEDIR.y, EYEDIR.z);
    COLOR = texture(source_panorama, eyedir).rgb * exposure;
}
